imgs/bl_circle_two_hander.svg

<svg height="167" viewBox="0 0 84 167" width="84" xmlns="http://www.w3.org/2000/svg"><g fill="none" fill-rule="evenodd" transform="translate(-23 2)"><path d="m37.8678176 128.842412c-.934578-3.203579-3.2573737-6.311613-5.4573254-10.64889-1.8779879-3.702182.5467763-33.6817421.8093253-36.117747.262549-2.4368078 4.8559517-3.5648852 7.6942105.5186748 2.8382588 4.0843628 2.6921307 21.6358022 4.6993858 21.5346362 1.7366772-.087516 1.3472697-26.9028395 1.2565418-39.6440924-.0192288-2.6810954 2.2702723-3.9449837 4.5482777-3.9301974 1.9072275.0123796 3.806397.9210636 4.3358337 2.6447512.8574994 2.7916905 1.9759419 17.2431248 3.623497 29.4400101.1469311 1.0887352 1.7527352 1.0678598 1.9542636-.0120435.1292673-.696919.2649577-1.4026699.4006482-2.0755018.6656058-3.3055479 7.2092576-4.8262444 9.0165902-.6503507.1276614.2962708.2521112 1.3817944.3701378 1.6523724.6511536 1.4805514 2.7756325 1.3946409 3.3055479-.1340846.1164208-.3340073.2448851-.6840726.3886046-1.049393 1.5118645-3.853127 6.9234245-2.8631488 8.2104765-.0947425.7940701 1.7061669.4945877 2.7780412 2.0490061 2.9386216 1.5094559.155763 1.6266796-1.2035502 2.1927255-2.1565949 1.7816397-3.0004451 7.7166918-2.3171754 8.412005 4.8093833.5106457 5.2373302 2.3236672 38.1071202-6.5477507 53.3198032-5.9142786 10.141788-12.6272525 19.101963-20.1389217 26.880525l-28.4903921-26.880525c-1.4611217-19.213247-1.6981093-17.141036-2.6326873-20.344615z" stroke="#000" stroke-width="4" transform="matrix(.69465837 .7193398 -.7193398 .69465837 104.629721 -9.869956)"/><g transform="translate(56)"><circle cx="24" cy="24" fill="#000" fill-rule="nonzero" r="24" stroke="#000" stroke-width="4"/><path d="m33.125 36h-17.2089844v-2.9355469l8.5253906-9.2988281c1.230475-1.3711006 2.1064428-2.516597 2.6279297-3.4365234.521487-.9199265.7822266-1.8427688.7822266-2.7685547 0-1.2187561-.34277-2.2031213-1.0283203-2.953125-.6855503-.7500038-1.6083926-1.125-2.7685547-1.125-1.3828194 0-2.4550743.4218708-3.2167969 1.265625-.7617225.8437542-1.1425781 1.9980395-1.1425781 3.4628906h-4.2714844c0-1.5586015.3544887-2.9619078 1.0634766-4.2099609.7089879-1.2480532 1.7226496-2.21777 3.0410156-2.9091797s2.8388586-1.0371094 4.5615235-1.0371094c2.4843874 0 4.4443287.6240172 5.8798828 1.8720703 1.435554 1.2480531 2.1533203 2.9736218 2.1533203 5.1767578 0 1.2773502-.360348 2.616204-1.0810547 4.0166016s-1.901359 2.991202-3.5419922 4.7724609l-6.2578125 6.6972657h11.8828125z" fill="#fff"/></g></g></svg>

<?xml version="1.0" encoding="UTF-8"?>
<svg width="84px" height="167px" viewBox="0 0 84 167" version="1.1" xmlns="http://www.w3.org/2000/svg" xmlns:xlink="http://www.w3.org/1999/xlink">
    <!-- Generator: Sketch 51.2 (57519) - http://www.bohemiancoding.com/sketch -->
    <title>Group 13</title>
    <desc>Created with Sketch.</desc>
    <defs></defs>
    <g id="Page-1" stroke="none" stroke-width="1" fill="none" fill-rule="evenodd">
        <g id="Alt-Lab-updated" transform="translate(-598.000000, -2014.000000)">
            <g id="Group-13" transform="translate(575.000000, 2016.000000)">
                <path d="M37.8678176,128.842412 C36.9332396,125.638833 34.6104439,122.530799 32.4104922,118.193522 C30.5325043,114.49134 32.9572685,84.5117799 33.2198175,82.075775 C33.4823665,79.6389672 38.0757692,78.5108898 40.914028,82.5944498 C43.7522868,86.6788126 43.6061587,104.230252 45.6134138,104.129086 C47.350091,104.04157 46.9606835,77.2262465 46.8699556,64.4849936 C46.8507268,61.8038982 49.1402279,60.5400099 51.4182333,60.5547962 C53.3254608,60.5671758 55.2246303,61.4758598 55.754067,63.1995474 C56.6115664,65.9912379 57.7300089,80.4426722 59.377564,92.6395575 C59.5244951,93.7282927 61.1302992,93.7074173 61.3318276,92.627514 C61.4610949,91.930595 61.5967853,91.2248441 61.7324758,90.5520122 C62.3980816,87.2464643 68.9417334,85.7257678 70.749066,89.9016615 C70.8767274,90.1979323 71.0011772,91.2834559 71.1192038,91.5540339 C71.7703574,93.0345853 73.8948363,92.9486748 74.4247517,91.4199493 C74.5411725,91.085942 74.6696368,90.7358767 74.8133563,90.3705563 C76.3252208,86.5174293 81.7367808,87.5074075 83.0238328,90.2758138 C83.8179029,91.9819807 83.5184205,93.053855 85.0728389,93.2144354 C86.5822948,93.3701984 86.6995185,92.0108852 87.2655644,91.0578405 C89.0472041,88.0573954 94.9822562,88.7406651 95.6775694,95.8672238 C96.1882151,101.104554 98.0012366,133.974344 89.1298187,149.187027 C83.2155401,159.328815 76.5025662,168.28899 68.990897,176.067552 L40.5005049,149.187027 C39.0393832,129.97378 38.8023956,132.045991 37.8678176,128.842412 Z" id="handoutline" stroke="#000000" stroke-width="4" transform="translate(63.940940, 118.311110) rotate(-314.000000) translate(-63.940940, -118.311110) "></path>
                <g id="Group-9" transform="translate(56.000000, 0.000000)">
                    <circle id="Oval-Copy-5" stroke="#000000" stroke-width="4" fill="#000000" fill-rule="nonzero" cx="24" cy="24" r="24"></circle>
                    <path d="M33.125,36 L15.9160156,36 L15.9160156,33.0644531 L24.4414062,23.765625 C25.6718812,22.3945244 26.547849,21.249028 27.0693359,20.3291016 C27.5908229,19.4091751 27.8515625,18.4863328 27.8515625,17.5605469 C27.8515625,16.3417908 27.5087925,15.3574256 26.8232422,14.6074219 C26.1376919,13.8574181 25.2148496,13.4824219 24.0546875,13.4824219 C22.6718681,13.4824219 21.5996132,13.9042927 20.8378906,14.7480469 C20.0761681,15.5918011 19.6953125,16.7460864 19.6953125,18.2109375 L15.4238281,18.2109375 C15.4238281,16.652336 15.7783168,15.2490297 16.4873047,14.0009766 C17.1962926,12.7529234 18.2099543,11.7832066 19.5283203,11.0917969 C20.8466863,10.4003872 22.3671789,10.0546875 24.0898438,10.0546875 C26.5742312,10.0546875 28.5341725,10.6787047 29.9697266,11.9267578 C31.4052806,13.1748109 32.1230469,14.9003796 32.1230469,17.1035156 C32.1230469,18.3808658 31.7626989,19.7197196 31.0419922,21.1201172 C30.3212855,22.5205148 29.1406332,24.1113192 27.5,25.8925781 L21.2421875,32.5898438 L33.125,32.5898438 L33.125,36 Z" id="2" fill="#FFFFFF"></path>
                </g>
            </g>
        </g>
    </g>
</svg>
